hornpipes/bobbycaseys.htmlhornpipes/bobbycaseys.htmlhornpipes/bobbycaseys.htmlhornpipes/bobbycaseys.htmlhornpipes/bobbycaseys.htmlhornpipes/bobbycaseys.htmlhornpipes/bobbycaseys.html<P ALIGN=Right>Jimmy McHugh
hornpipes/bobbycaseys.htmlhornpipes/bobbycaseys.html<PRE>T:Jimmy McHugh's
T:Jimmy McHugh's
M:6/8
L:1/8
C:Jimmy McHugh
R:jig
D:Oisín MacDiarmada, Brian Fitzgerald and Micheál Ó Ruanaigh: Traditional Music on Fiddle, Banjo and Harp
Z:Devin McCabe
K:DMin
A,CF DED|FGA GAc|dcA BAG|AFD CA,G,|
!A,CF ~D3|FGA GAc|dcA BAG|1AFD D2C:|2AFD D3||
!~d3 gfd|~c3 gec|af/2g/2a fga|gfd g2a|
!bdb ada|gfd ~g3|af/2g/2a fga|gfd d2c|
!~d3 gfd|~c3 gec|af/2g/2a fga|gfd gda|
!dbd ada|gfd ~g3|af/2g/2a fga|gfd def|
!:ged cAG|FDC F2A|BAG ~F3|GEC B,D/2E/2F|
!Ad/2e/2f ged|cAG FAc|dcA ~G3|1AFD D2 e/2f/2:|2AFD D2C||
hornpipes/bobbycaseys.htmlhornpipes/bobbycaseys.htmlhornpipes/bobbycaseys.htmlhornpipes/bobbycaseys.htmlhornpipes/bobbycaseys.htmlhornpipes/bobbycaseys.htmlhornpipes/bobbycaseys.html